packages/sources/assets/src/assets/flag-coc.svg

<svg width="28" height="20" viewBox="0 0 28 20" fill="none" xmlns="http://www.w3.org/2000/svg">
<rect width="28" height="20" rx="2" fill="white"/>
<mask id="mask0_503_4098" style="mask-type:alpha" maskUnits="userSpaceOnUse" x="0" y="0" width="28" height="20">
<rect width="28" height="20" rx="2" fill="white"/>
</mask>
<g mask="url(#mask0_503_4098)">
<rect width="28" height="20" fill="url(#paint0_linear_503_4098)"/>
<path fill-rule="evenodd" clip-rule="evenodd" d="M13.4442 3.33335C13.3721 3.33335 13.3019 3.35675 13.2442 3.40002L10.7203 5.29297C10.6847 5.31962 10.6442 5.3389 10.6011 5.34968L8.03527 5.99115C8.01167 5.99704 7.98879 6.00551 7.96704 6.01638L5.43248 7.28366C5.36797 7.31592 5.31567 7.36823 5.28341 7.43273L4.08628 9.827C4.03278 9.93399 4.04072 10.0614 4.10707 10.161L5.27712 11.916C5.31362 11.9708 5.3331 12.0351 5.3331 12.1009V13.8619C5.3331 13.9504 5.36822 14.0351 5.43073 14.0977L6.49655 15.1635C6.598 15.2649 6.75299 15.2901 6.88132 15.2259L10.5961 13.3685C10.6423 13.3454 10.6934 13.3334 10.7451 13.3334H13.2124C13.2904 13.3334 13.3659 13.3607 13.4258 13.4106L17.2404 16.5894C17.3003 16.6393 17.3758 16.6667 17.4538 16.6667H19.8214C19.9328 16.6667 20.0369 16.611 20.0987 16.5183L22.6105 12.7507C22.647 12.6959 22.6664 12.6316 22.6664 12.5658V10.1009C22.6664 10.0351 22.647 9.9708 22.6105 9.91605L19.9998 6.00002L18.0969 2.82852C18.0366 2.72812 17.9281 2.66669 17.811 2.66669H17.3925C17.1246 2.66669 16.9904 2.99063 17.1798 3.18008C17.2714 3.27161 17.2941 3.41145 17.2362 3.52723L16.7586 4.48242C16.7021 4.59535 16.5867 4.66669 16.4604 4.66669H14.8724C14.7462 4.66669 14.6308 4.59535 14.5743 4.48242L14.0919 3.51762C14.0354 3.40469 13.92 3.33335 13.7938 3.33335H13.4442ZM19.3331 17.3333H17.9998L18.4308 17.7643C18.5609 17.8945 18.772 17.8945 18.9022 17.7643L19.3331 17.3333Z" fill="white"/>
</g>
<defs>
<linearGradient id="paint0_linear_503_4098" x1="0" y1="0" x2="0" y2="20" gradientUnits="userSpaceOnUse">
<stop stop-color="#19BFBF"/>
<stop offset="1" stop-color="#10ACAC"/>
</linearGradient>
</defs>
</svg>

<svg width="28" height="20" fill="none" xmlns="http://www.w3.org/2000/svg"><rect width="28" height="20" rx="2" fill="#fff"/><mask id="a" style="mask-type:alpha" maskUnits="userSpaceOnUse" x="0" y="0" width="28" height="20"><rect width="28" height="20" rx="2" fill="#fff"/></mask><g mask="url(#a)"><path fill="url(#b)" d="M0 0h28v20H0z"/><path fill-rule="evenodd" clip-rule="evenodd" d="M13.444 3.333a.333.333 0 0 0-.2.067L10.72 5.293a.334.334 0 0 1-.119.057l-2.566.641a.333.333 0 0 0-.068.025L5.432 7.284a.333.333 0 0 0-.149.149L4.086 9.827a.333.333 0 0 0 .021.334l1.17 1.755c.037.055.056.12.056.185v1.76c0 .09.035.174.098.237l1.066 1.066a.333.333 0 0 0 .384.062l3.715-1.858a.333.333 0 0 1 .15-.035h2.466c.078 0 .154.028.214.078l3.814 3.178c.06.05.136.078.214.078h2.367a.333.333 0 0 0 .278-.149l2.511-3.767a.333.333 0 0 0 .056-.185V10.1a.33.33 0 0 0-.056-.185L20 6l-1.903-3.171a.334.334 0 0 0-.286-.162h-.419a.3.3 0 0 0-.212.513.3.3 0 0 1 .056.347l-.477.955a.333.333 0 0 1-.299.185h-1.588a.333.333 0 0 1-.298-.185l-.482-.964a.333.333 0 0 0-.298-.185h-.35Zm5.89 14H18l.43.431c.13.13.342.13.472 0l.431-.43Z" fill="#fff"/></g><defs><linearGradient id="b" x1="0" y1="0" x2="0" y2="20" gradientUnits="userSpaceOnUse"><stop stop-color="#19BFBF"/><stop offset="1" stop-color="#10ACAC"/></linearGradient></defs></svg>
